static/fonts/fa/joint.svg

<svg xmlns="http://www.w3.org/2000/svg" viewBox="0 0 640 512"><!-- Font Awesome Free 5.15.4 by @fontawesome - https://fontawesome.com License - https://fontawesome.com/license/free (Icons: CC BY 4.0, Fonts: SIL OFL 1.1, Code: MIT License) --><path d="M444.34 181.1c22.38 15.68 35.66 41.16 35.66 68.59V280c0 4.42 3.58 8 8 8h48c4.42 0 8-3.58 8-8v-30.31c0-43.24-21.01-83.41-56.34-108.06C463.85 125.02 448 99.34 448 70.31V8c0-4.42-3.58-8-8-8h-48c-4.42 0-8 3.58-8 8v66.4c0 43.69 24.56 81.63 60.34 106.7zM194.97 358.98C126.03 370.07 59.69 394.69 0 432c83.65 52.28 180.3 80 278.94 80h88.57L254.79 380.49c-14.74-17.2-37.45-25.11-59.82-21.51zM553.28 87.09c-5.67-3.8-9.28-9.96-9.28-16.78V8c0-4.42-3.58-8-8-8h-48c-4.42 0-8 3.58-8 8v62.31c0 22.02 10.17 43.41 28.64 55.39C550.79 153.04 576 199.54 576 249.69V280c0 4.42 3.58 8 8 8h48c4.42 0 8-3.58 8-8v-30.31c0-65.44-32.41-126.19-86.72-162.6zM360.89 352.05c-34.4.06-86.81.15-88.21.17l117.8 137.43A63.987 63.987 0 0 0 439.07 512h88.45L409.57 374.4a63.955 63.955 0 0 0-48.68-22.35zM616 352H432l117.99 137.65A63.987 63.987 0 0 0 598.58 512H616c13.25 0 24-10.75 24-24V376c0-13.26-10.75-24-24-24z"/></svg>

<svg xmlns="http://www.w3.org/2000/svg" viewBox="0 0 640 512"><!--! Font Awesome Free 6.0.0-beta3 by @fontawesome - https://fontawesome.com License - https://fontawesome.com/license/free (Icons: CC BY 4.0, Fonts: SIL OFL 1.1, Code: MIT License) Copyright 2021 Fonticons, Inc. --><path d="M444.4 181.1C466.8 196.8 480 222.2 480 249.8V280C480 284.4 483.6 288 488 288h48C540.4 288 544 284.4 544 280V249.8c0-43.25-21-83.5-56.38-108.1C463.9 125 448 99.38 448 70.25V8C448 3.625 444.4 0 440 0h-48C387.6 0 384 3.625 384 8v66.38C384 118.1 408.5 156 444.4 181.1zM195 359C125.1 370.1 59.75 394.8 0 432C83.62 484.2 180.2 512 279 512h88.5l-112.7-131.5C240 363.2 217.4 355.4 195 359zM553.3 87.12C547.6 83.25 544 77.12 544 70.25V8C544 3.625 540.4 0 536 0h-48C483.6 0 480 3.625 480 8v62.25c0 22.13 10.12 43.5 28.62 55.5C550.8 153 576 199.5 576 249.8V280C576 284.4 579.6 288 584 288h48C636.4 288 640 284.4 640 280V249.8C640 184.2 607.6 123.5 553.3 87.12zM360.9 352c-34.38 .125-86.75 .25-88.25 .25l117.9 137.4C402.6 503.9 420.4 512 439.1 512h88.38l-117.9-137.6C397.4 360.1 379.6 352 360.9 352zM616 352H432l117.1 137.6C562.1 503.9 579.9 512 598.6 512H616c13.25 0 24-10.75 24-24v-112C640 362.8 629.3 352 616 352z"/></svg>
